X: 15087
T: Get Up My Darling And Come With Me
R: reel
M: 4/4
K: Fmajor
|:AG|F3/2D/ DE F2 GF|DEFG Acde|1 fddc AFGF|D2 D2 D2:|2 fedc AcAG||
F2F2F2A2|Acdef2 ef|d3/2A/ AB c2 de|fedc AFGF|
D2 D2 D2 DE|F2 GE FDDC|DEFG Acde|fedc AcAG|F2 F2 F2||

